src/assets/icons/notbot.svg

<svg width="24" height="24" viewBox="0 0 24 24" fill="none" xmlns="http://www.w3.org/2000/svg" class="d-block d-sm-inline-block mr-2"><path d="M13.1999 12.0004C14.5254 12.0004 15.5999 13.0749 15.5999 14.4004V16.2004C15.5999 18.6657 13.0942 20.4004 8.9999 20.4004C4.90556 20.4004 2.3999 18.6657 2.3999 16.2004V14.4004C2.3999 13.0749 3.47442 12.0004 4.7999 12.0004H13.1999ZM4.7999 13.2004C4.13716 13.2004 3.5999 13.7376 3.5999 14.4004V16.2004C3.5999 17.8889 5.49425 19.2004 8.9999 19.2004C12.5056 19.2004 14.3999 17.8889 14.3999 16.2004V14.4004C14.3999 13.7376 13.8626 13.2004 13.1999 13.2004H4.7999ZM18.1937 17.8082L18.1037 17.7782C18.1575 17.7636 18.2104 17.7484 18.2623 17.7324C18.2397 17.7581 18.2168 17.7834 18.1937 17.8082ZM17.8846 13.0782L17.8403 13.1998L16.5947 13.1993C16.4365 12.7521 16.1924 12.3455 15.8823 11.9993L18.3418 12.0001L17.8846 13.0782ZM8.9999 2.40039C11.3195 2.40039 13.1999 4.28079 13.1999 6.60039C13.1999 8.91999 11.3195 10.8004 8.9999 10.8004C6.68031 10.8004 4.7999 8.91999 4.7999 6.60039C4.7999 4.28079 6.68031 2.40039 8.9999 2.40039ZM8.9999 3.60039C7.34305 3.60039 5.9999 4.94354 5.9999 6.60039C5.9999 8.25724 7.34305 9.60039 8.9999 9.60039C10.6568 9.60039 11.9999 8.25724 11.9999 6.60039C11.9999 4.94354 10.6568 3.60039 8.9999 3.60039ZM17.3999 4.80039C19.0568 4.80039 20.3999 6.14354 20.3999 7.80039C20.3999 9.45724 19.0568 10.8004 17.3999 10.8004C15.743 10.8004 14.3999 9.45724 14.3999 7.80039C14.3999 6.14354 15.743 4.80039 17.3999 4.80039ZM17.3999 6.00039C16.4058 6.00039 15.5999 6.80628 15.5999 7.80039C15.5999 8.7945 16.4058 9.60039 17.3999 9.60039C18.394 9.60039 19.1999 8.7945 19.1999 7.80039C19.1999 6.80628 18.394 6.00039 17.3999 6.00039ZM19.0013 13.5183L19.4803 12.3888C19.705 11.859 20.2431 11.5709 20.7708 11.6808L20.8836 11.7105L21.4834 11.9022C22.0782 12.0922 22.5336 12.6017 22.6807 13.2415C23.0303 14.762 22.6109 16.6131 21.4226 18.795C20.236 20.9737 18.9354 22.2836 17.5209 22.7249C16.9717 22.8962 16.3817 22.7717 15.9379 22.3991L15.8206 22.2914L15.365 21.834C14.9703 21.4377 14.8889 20.8107 15.1536 20.3201L15.2209 20.2095L15.9075 19.2008C16.1776 18.8038 16.6398 18.616 17.0851 18.7109L17.206 18.7438L18.4736 19.1665C18.9794 18.7837 19.4012 18.3019 19.7389 17.7211C20.0283 17.2232 20.2177 16.7186 20.3069 16.2073L20.3431 15.9511L19.2877 14.9493C18.94 14.6193 18.8137 14.1054 18.9559 13.643L19.0013 13.5183Z" fill="currentColor"></path></svg>

<svg xmlns="http://www.w3.org/2000/svg" width="24" height="24" fill="none" class="d-block d-sm-inline-block mr-2"><path fill="currentColor" d="M13.2 12a2.4 2.4 0 0 1 2.4 2.4v1.8c0 2.466-2.506 4.2-6.6 4.2-4.094 0-6.6-1.734-6.6-4.2v-1.8A2.4 2.4 0 0 1 4.8 12h8.4Zm-8.4 1.2a1.2 1.2 0 0 0-1.2 1.2v1.8c0 1.689 1.894 3 5.4 3 3.506 0 5.4-1.311 5.4-3v-1.8a1.2 1.2 0 0 0-1.2-1.2H4.8Zm13.394 4.608-.09-.03c.053-.014.106-.03.158-.046a3.575 3.575 0 0 1-.068.076Zm-.31-4.73-.044.122h-1.245a3.598 3.598 0 0 0-.713-1.2h2.46l-.457 1.078ZM9 2.4a4.2 4.2 0 1 1 0 8.4 4.2 4.2 0 0 1 0-8.4Zm0 1.2a3 3 0 1 0 0 6 3 3 0 0 0 0-6Zm8.4 1.2a3 3 0 1 1 0 6 3 3 0 0 1 0-6Zm0 1.2a1.8 1.8 0 1 0 0 3.6 1.8 1.8 0 0 0 0-3.6ZM19 13.518l.48-1.13c.224-.529.762-.817 1.29-.707l.113.03.6.191c.594.19 1.05.7 1.197 1.34.35 1.52-.07 3.371-1.258 5.553-1.187 2.179-2.488 3.489-3.902 3.93-.55.171-1.14.047-1.583-.326l-.117-.108-.456-.457a1.294 1.294 0 0 1-.211-1.514l.067-.11.687-1.01c.27-.396.732-.584 1.177-.49l.121.034 1.268.422a4.835 4.835 0 0 0 1.265-1.445c.29-.498.479-1.002.568-1.514l.036-.256-1.055-1.002a1.288 1.288 0 0 1-.332-1.306l.045-.125Z"/></svg>
